flaticon/sewing/material.svg

<svg xmlns="http://www.w3.org/2000/svg" width="32" height="32" viewBox="0 0 24 24">
    <path d="M 22.082031 13.546875 C 22 13.464844 21.875 13.421875 21.753906 13.421875 C 21.023438 13.421875 20.453125 13.21875 20.003906 12.730469 C 18.785156 11.472656 18.90625 8.988281 18.90625 8.949219 C 18.90625 4.433594 20.046875 2.238281 20.085938 2.238281 C 20.128906 2.117188 20.128906 1.992188 20.085938 1.871094 C 20.046875 1.75 19.925781 1.667969 19.800781 1.628906 L 12.074219 0 C 11.953125 0 11.871094 0 11.746094 0.0820312 C 11.625 0.164062 11.585938 0.285156 11.585938 0.40625 C 11.585938 1.628906 11.179688 2.644531 10.324219 3.417969 C 7.800781 5.734375 2.3125 5.289062 2.269531 5.289062 C 2.148438 5.289062 2.027344 5.328125 1.945312 5.410156 C 1.863281 5.492188 1.824219 5.574219 1.824219 5.695312 L 1.824219 23.59375 C 1.824219 23.835938 1.984375 24 2.230469 24 L 11.585938 24 C 11.789062 24 11.953125 23.878906 11.992188 23.675781 L 12.847656 18.386719 L 14.027344 23.675781 C 14.066406 23.878906 14.230469 24 14.433594 24 L 20.535156 24 C 20.738281 24 20.902344 23.835938 20.941406 23.632812 L 22.160156 13.871094 C 22.203125 13.75 22.160156 13.628906 22.082031 13.546875 Z M 20.167969 23.1875 L 14.757812 23.1875 L 13.210938 16.191406 C 13.171875 15.988281 13.007812 15.863281 12.804688 15.863281 C 12.601562 15.863281 12.441406 15.988281 12.398438 16.191406 L 11.261719 23.1875 L 2.636719 23.1875 L 2.636719 11.390625 L 3.042969 11.390625 C 3.285156 11.390625 3.449219 11.226562 3.449219 10.984375 C 3.449219 10.738281 3.285156 10.578125 3.042969 10.578125 L 2.636719 10.578125 L 2.636719 6.140625 C 4.058594 6.183594 8.492188 6.183594 10.851562 3.988281 C 11.746094 3.171875 12.234375 2.117188 12.359375 0.894531 L 19.152344 2.359375 C 18.785156 3.253906 18.09375 5.410156 18.09375 8.949219 C 18.09375 8.988281 18.0625 9.695312 18.214844 10.578125 L 17.6875 10.578125 C 17.441406 10.578125 17.28125 10.738281 17.28125 10.984375 C 17.28125 11.226562 17.441406 11.390625 17.6875 11.390625 L 18.40625 11.390625 C 18.601562 12.050781 18.921875 12.730469 19.4375 13.261719 C 19.925781 13.789062 20.574219 14.117188 21.308594 14.195312 Z M 20.167969 23.1875"/>
    <path d="M7.109375 10.578125L5.484375 10.578125C5.238281 10.578125 5.078125 10.738281 5.078125 10.984375 5.078125 11.226562 5.238281 11.390625 5.484375 11.390625L7.109375 11.390625C7.355469 11.390625 7.515625 11.226562 7.515625 10.984375 7.515625 10.738281 7.355469 10.578125 7.109375 10.578125zM15.246094 10.578125L13.617188 10.578125C13.375 10.578125 13.210938 10.738281 13.210938 10.984375 13.210938 11.226562 13.375 11.390625 13.617188 11.390625L15.246094 11.390625C15.492188 11.390625 15.652344 11.226562 15.652344 10.984375 15.652344 10.738281 15.492188 10.578125 15.246094 10.578125zM11.179688 10.578125L9.550781 10.578125C9.308594 10.578125 9.144531 10.738281 9.144531 10.984375 9.144531 11.226562 9.308594 11.390625 9.550781 11.390625L11.179688 11.390625C11.421875 11.390625 11.585938 11.226562 11.585938 10.984375 11.585938 10.738281 11.421875 10.578125 11.179688 10.578125zM11.179688 10.578125"/>
</svg>

<svg xmlns="http://www.w3.org/2000/svg" width="32" height="32" viewBox="0 0 24 24">
    <path d="M22.082 13.547a.47.47 0 0 0-.328-.125c-.73 0-1.3-.203-1.75-.692-1.219-1.257-1.098-3.742-1.098-3.78 0-4.516 1.14-6.712 1.18-6.712a.54.54 0 0 0 0-.367c-.04-.121-.16-.203-.285-.242L12.074 0c-.12 0-.203 0-.328.082a.37.37 0 0 0-.16.324c0 1.223-.406 2.239-1.262 3.012C7.801 5.734 2.313 5.289 2.27 5.289a.458.458 0 0 0-.325.121.37.37 0 0 0-.12.285v17.899c0 .242.16.406.405.406h9.356c.203 0 .367-.121.406-.324l.856-5.29 1.18 5.29c.038.203.202.324.406.324h6.101c.203 0 .367-.164.406-.367l1.22-9.762a.316.316 0 0 0-.079-.324zm-1.914 9.64h-5.41l-1.547-6.996a.397.397 0 0 0-.406-.328.4.4 0 0 0-.407.328l-1.136 6.997H2.637V11.39h.406a.385.385 0 0 0 .406-.407c0-.246-.164-.406-.406-.406h-.406V6.141c1.422.043 5.855.043 8.215-2.153.894-.816 1.382-1.87 1.507-3.093l6.793 1.464c-.367.895-1.058 3.051-1.058 6.59 0 .04-.032.746.12 1.63h-.526c-.247 0-.407.16-.407.405 0 .243.16.407.407.407h.718c.196.66.516 1.34 1.032 1.87a2.943 2.943 0 0 0 1.87.934zm0 0"/>
    <path d="M7.11 10.578H5.483c-.246 0-.406.16-.406.406 0 .243.16.407.406.407H7.11c.246 0 .407-.164.407-.407 0-.246-.16-.406-.407-.406zm0 0M15.246 10.578h-1.629c-.242 0-.406.16-.406.406 0 .243.164.407.406.407h1.63c.245 0 .405-.164.405-.407 0-.246-.16-.406-.406-.406zm0 0M11.18 10.578H9.55c-.241 0-.405.16-.405.406 0 .243.164.407.406.407h1.629a.385.385 0 0 0 .406-.407c0-.246-.164-.406-.406-.406zm0 0"/>
</svg>
